src/components/patterns/c.svg

<?xml version="1.0" encoding="UTF-8" standalone="no"?>
<svg xmlns="http://www.w3.org/2000/svg" version="1.1" width="4.001037365484107in" height="3.4670508075688766in" viewBox="0 0 288.07469031485573 249.62765814495913">
<title>kumiko - Component A</title>
<g>
  <path d="M0.037345157427836284 249.12 L144.03734515742784 0 L144.33044172407628 0.21234185504084735 L288.07469031485573 249.47999999999996 L287.7442485907794 249.6276581449591 L0 249.48000000000008 L0.037345157427836284 249.12 L144.03734515742784 166.32 L144.33044172407628 0.21234185504084735 L144.03734515742784 166.32 L287.7442485907794 249.6276581449591 L144.03734515742784 166.32 L108.46007137528642 145.73580773630135 L144.33044172407628 0.21234185504084735 L179.65241546524464 145.80127323912075 L287.7442485907793 249.62765814495907 L143.99954863175245 207.42291902457785 L0.03734515742789313 249.1200000000001 L108.46007137528643 145.73580773630138 L144.03734515742784 166.32 L179.65241546524464 145.80127323912077 L144.03734515742784 166.32 L143.99954863175245 207.42291902457782 L144.03734515742784 166.32 " fill="none" stroke="#000000" stroke-width="0.72" />
</g>
</svg>
<!--
{"app":"Cuttle","type":"Project","version":15,"payload":{"name":"Project","units":"in","hairlineStrokeWidth":0.01,"tolerance":0.001,"components":[{"name":"Component A","parameters":[],"isPassThrough":false,"isImmutable":false,"isAspectRatioLocked":false,"viewport":{"pixelsPerUnit":128.57748563551655,"center":{"x":_h0.7978993368034007,"y":_h0.7327848964853674,"@class":"Vec","@id":"0"},"@class":"Viewport","@id":"1"},"element":{"name":"","transform":null,"modifiers":[],"fill":null,"stroke":null,"children":[{"name":"Path 1","transform":null,"modifiers":[],"fill":null,"stroke":{"args":{"@id":"2"},"isEnabled":true,"definition":{"@builtin":"StrokeDefinition"},"@class":"Instance","@id":"3"},"children":[{"name":"outer 1","transform":null,"modifiers":[{"args":{"repetitions":{"jsCode":"3","@class":"Expression","@id":"4"},"@id":"5"},"isEnabled":true,"definition":{"@builtin":"RotationalRepeatDefinition"},"@class":"Instance","@id":"6"}],"fill":null,"stroke":null,"children":[{"name":"Anchor 3","transform":null,"modifiers":[],"fill":null,"stroke":null,"children":[],"isLocked":false,"isVisible":true,"base":{"args":{"position":{"jsCode":"Vec(_h2.00, 1.73_h.58)","@class":"Expression","@id":"7"},"@id":"8"},"isEnabled":true,"definition":{"@builtin":"AnchorDefinition"},"@class":"Instance","@id":"9"},"@class":"Element","@id":"10"},{"name":"Anchor 4","transform":null,"modifiers":[],"fill":null,"stroke":null,"children":[],"isLocked":false,"isVisible":true,"base":{"args":{"position":{"jsCode":"Vec(0, _h1.73_h0.58)","@class":"Expression","@id":"11"},"@id":"12"},"isEnabled":true,"definition":{"@builtin":"AnchorDefinition"},"@class":"Instance","@id":"13"},"@class":"Element","@id":"14"}],"isLocked":false,"isVisible":true,"base":{"args":{"@id":"15"},"isEnabled":true,"definition":{"@builtin":"GroupDefinition"},"@class":"Instance","@id":"16"},"@class":"Element","@id":"17"},{"name":"outer","transform":null,"modifiers":[{"args":{"repetitions":{"jsCode":"3","@class":"Expression","@id":"18"},"@id":"19"},"isEnabled":true,"definition":{"@builtin":"RotationalRepeatDefinition"},"@class":"Instance","@id":"20"}],"fill":null,"stroke":null,"children":[{"name":"Anchor 1","transform":null,"modifiers":[],"fill":null,"stroke":null,"children":[],"isLocked":false,"isVisible":true,"base":{"args":{"position":{"jsCode":"Vec(_h2.00, 1.73_h.58)","@class":"Expression","@id":"21"},"@id":"22"},"isEnabled":true,"definition":{"@builtin":"AnchorDefinition"},"@class":"Instance","@id":"23"},"@class":"Element","@id":"24"},{"name":"Anchor 2","transform":null,"modifiers":[],"fill":null,"stroke":null,"children":[],"isLocked":false,"isVisible":true,"base":{"args":{"position":{"jsCode":"Vec(0.00, 0.00)","@class":"Expression","@id":"25"},"handleIn":{"jsCode":"Vec(0.00, 0.00)","@class":"Expression","@id":"26"},"handleOut":{"jsCode":"Vec(0.00, 0.00)","@class":"Expression","@id":"27"},"@id":"28"},"isEnabled":true,"definition":{"@builtin":"AnchorDefinition"},"@class":"Instance","@id":"29"},"@class":"Element","@id":"30"}],"isLocked":false,"isVisible":true,"base":{"args":{"@id":"31"},"isEnabled":true,"definition":{"@builtin":"GroupDefinition"},"@class":"Instance","@id":"32"},"@class":"Element","@id":"33"},{"name":"outer 2","transform":null,"modifiers":[{"args":{"repetitions":{"jsCode":"3","@class":"Expression","@id":"34"},"@id":"35"},"isEnabled":true,"definition":{"@builtin":"RotationalRepeatDefinition"},"@class":"Instance","@id":"36"}],"fill":null,"stroke":null,"children":[{"name":"Anchor 5","transform":null,"modifiers":[],"fill":null,"stroke":null,"children":[],"isLocked":false,"isVisible":true,"base":{"args":{"position":{"jsCode":"Vec(_h0.4941288025297419, _h0.28589155921803644)","@class":"Expression","@id":"37"},"handleIn":{"jsCode":"Vec(0.000, 0.000)","@class":"Expression","@id":"38"},"handleOut":{"jsCode":"Vec(0.000, 0.000)","@class":"Expression","@id":"39"},"@id":"40"},"isEnabled":true,"definition":{"@builtin":"AnchorDefinition"},"@class":"Instance","@id":"41"},"@class":"Element","@id":"42"},{"name":"Anchor 6","transform":null,"modifiers":[],"fill":null,"stroke":null,"children":[],"isLocked":false,"isVisible":true,"base":{"args":{"position":{"jsCode":"Vec(0.004070785647895092, _h2.307050807568877)","@class":"Expression","@id":"43"},"handleIn":{"jsCode":"Vec(0.00, 0.00)","@class":"Expression","@id":"44"},"handleOut":{"jsCode":"Vec(0.00, 0.00)","@class":"Expression","@id":"45"},"@id":"46"},"isEnabled":true,"definition":{"@builtin":"AnchorDefinition"},"@class":"Instance","@id":"47"},"@class":"Element","@id":"48"}],"isLocked":false,"isVisible":true,"base":{"args":{"@id":"49"},"isEnabled":true,"definition":{"@builtin":"GroupDefinition"},"@class":"Instance","@id":"50"},"@class":"Element","@id":"51"},{"name":"outer 3","transform":null,"modifiers":[{"args":{"repetitions":{"jsCode":"3","@class":"Expression","@id":"52"},"@id":"53"},"isEnabled":true,"definition":{"@builtin":"RotationalRepeatDefinition"},"@class":"Instance","@id":"54"}],"fill":null,"stroke":null,"children":[{"name":"Anchor 7","transform":null,"modifiers":[],"fill":null,"stroke":null,"children":[],"isLocked":false,"isVisible":true,"base":{"args":{"position":{"jsCode":"Vec(_h0.49412880252974173, _h0.28589155921803633)","@class":"Expression","@id":"55"},"handleIn":{"jsCode":"Vec(0.000, 0.000)","@class":"Expression","@id":"56"},"handleOut":{"jsCode":"Vec(0.000, 0.000)","@class":"Expression","@id":"57"},"@id":"58"},"isEnabled":true,"definition":{"@builtin":"AnchorDefinition"},"@class":"Instance","@id":"59"},"@class":"Element","@id":"60"},{"name":"Anchor 8","transform":null,"modifiers":[],"fill":null,"stroke":null,"children":[],"isLocked":false,"isVisible":true,"base":{"args":{"position":{"jsCode":"Vec(0.00, 0.00)","@class":"Expression","@id":"61"},"handleIn":{"jsCode":"Vec(0.00, 0.00)","@class":"Expression","@id":"62"},"handleOut":{"jsCode":"Vec(0.00, 0.00)","@class":"Expression","@id":"63"},"@id":"64"},"isEnabled":true,"definition":{"@builtin":"AnchorDefinition"},"@class":"Instance","@id":"65"},"@class":"Element","@id":"66"}],"isLocked":false,"isVisible":true,"base":{"args":{"@id":"67"},"isEnabled":true,"definition":{"@builtin":"GroupDefinition"},"@class":"Instance","@id":"68"},"@class":"Element","@id":"69"}],"isLocked":false,"isVisible":true,"base":{"args":{"@id":"70"},"isEnabled":true,"definition":{"@builtin":"PathDefinition"},"@class":"Instance","@id":"71"},"@class":"Element","@id":"72"}],"isLocked":false,"isVisible":true,"base":{"args":{"@id":"73"},"isEnabled":true,"definition":{"@builtin":"GroupDefinition"},"@class":"Instance","@id":"74"},"@class":"Element","@id":"75"},"@class":"Component","@id":"76"}],"modifiers":[],"parameters":[],"focusedComponent":{"@ref":"76"},"focusedNode":{"parent":null,"source":{"@ref":"75"},"@class":"Node","@id":"77"},"selectedItems":[],"expandedNodes":[{"parent":{"parent":null,"source":{"@ref":"75"},"@class":"Node","@id":"78"},"source":{"@ref":"72"},"@class":"Node","@id":"79"},{"parent":{"parent":{"parent":null,"source":{"@ref":"75"},"@class":"Node","@id":"80"},"source":{"@ref":"72"},"@class":"Node","@id":"81"},"source":{"@ref":"33"},"@class":"Node","@id":"82"},{"parent":{"parent":{"parent":null,"source":{"@ref":"75"},"@class":"Node","@id":"83"},"source":{"@ref":"72"},"@class":"Node","@id":"84"},"source":{"@ref":"51"},"@class":"Node","@id":"85"},{"parent":{"parent":{"parent":null,"source":{"@ref":"75"},"@class":"Node","@id":"86"},"source":{"@ref":"72"},"@class":"Node","@id":"87"},"source":{"@ref":"69"},"@class":"Node","@id":"88"}],"editingModifiers":[],"_utransformCenter":null,"isGridSnappingEnabled":false,"isGeometrySnappingEnabled":true,"isTransformBoxEnabled":true,"@class":"Project","@id":"89"}}
-->

<svg xmlns="http://www.w3.org/2000/svg" width="384.1" height="332.837" viewBox="0 0 288.075 249.628"><path d="M.037 249.12 144.037 0l.293.212L288.075 249.48l-.33.148L0 249.48l.037-.36 144-82.8L144.33.212l-.293 166.108 143.707 83.308-143.707-83.308-35.577-20.584L144.33.212l35.322 145.59 108.092 103.826L144 207.423.037 249.12 108.46 145.736l35.577 20.584 35.615-20.519-35.615 20.519-.037 41.103.037-41.103" fill="none" stroke="#000" stroke-width=".72"/></svg>
